T: Barren Rocks Of Aden, The
M: 2/4
L: 1/8
K: Gmaj
|: B>d BA | GB DG | FA/F/ ED | BD GA | B>d BA | GB DG | FA/F/ EF |[1 G2 G>A :|[2 G2 G/A/B/c/ |||: dB GB | Ac E>A | cA FD | GB d>B |dB GB | Ac E>A | cA FD |[1 G2 G>B :|[2 G2 G>A |]
